X:1425
T:Mill, Da
D:Tom Anderson & Aly Bain, The Silver Bow
O:Shetland
N:"Work tune"
Z:Nigel Gatherer <gatherer@argonet.co.uk>
M:4/4
L:1/8
K:A mixolydian
ABcd e2 f2|d2 dd d2 fe|dcBA ABcA|B2 EE E2 ec|
dcBA ABcA|d2 dd d2 fe|dcBA (3Bcd cB|A2 A>B A4:|
ecAc ecAc|fdBd fdBd|AFDF AFDF|BGEG BG E2|
ecAc ecef|d2 dd d2 fe|dcBA (3Bcd cB|A2 A>B A4:|
